rospo-icon-theme-classic-common/48x48/apps/microscope.svg

<svg height="48" viewBox="0 0 48 48" width="48" xmlns="http://www.w3.org/2000/svg"><path d="m12.628267 39h10.864729 4.155727 9.72301c1.451504 0 2.628267 1.343201 2.628267 3.000001s-1.176763 2.999999-2.628267 2.999999h-9.72301-6.14077-8.879686c-1.451504 0-2.628267-1.343199-2.628267-2.999999 0-1.6569 1.176675-3.000001 2.628267-3.000001z" opacity=".2"/><path d="m23.043068 26.576251c.08939-.338291.311434-.627815.617427-.804869l4.47695-2.589723c.637054-.368518 1.457257-.158602 1.831585.469038l2.846535 4.773851c.374149.627726.161025 1.435318-.476207 1.804011l-4.47695 2.589723c-.275929.159568-.586025.210707-.879439.16651-.384231-.058-.739914-.279596-.952145-.635548l-2.846535-4.77385c-.179761-.301386-.230522-.660853-.141221-.999143z" opacity=".2"/><path d="m18.71875 10.746094c-.651893-.01444-1.309873.220627-1.818359.707031l-4.357422 4.167969c-5.8730219 5.618397-6.0794186 14.966822-.460938 20.839844l1.472657 1.539062h7.050781l-4.841797-5.0625c-3.676011-3.842646-3.539913-9.958671.302734-13.634766l4.357422-4.167968c1.016801-.972722 1.050933-2.584677.07813-3.601563-.486403-.508401-1.13131-.772671-1.783203-.787109z" opacity=".2"/><path d="m-37 36h10v2h-10z" fill="#e4e4e4" transform="scale(-1 1)"/><path d="m21.339581 43.5h15.378993c1.407147 0 2.547949-.640801 2.547949-2.047948s-1.140802-2.547949-2.547949-2.547949h-14.290424l-6.66382-6.965837c-3.676011-3.842646-3.54046-9.959506.302187-13.635601l4.356397-4.16751c1.016801-.972722 1.052558-2.585573.07975-3.602459-.972807-1.0168018-2.585488-1.0525581-3.60246-.07975l-4.356397 4.167509c-5.8730217 5.618397-6.0801699 14.9675-.461689 20.840521l7.416314 7.752389c.480714.502454 1.145814.286635 1.841149.286635z" fill="#3f3f3f"/><path d="m23.043068 25.576251c.08939-.338291.311434-.627815.617427-.804869l4.47695-2.589723c.637054-.368518 1.457257-.158602 1.831585.469038l2.846535 4.773851c.374149.627726.161025 1.435318-.476207 1.804011l-4.47695 2.589723c-.275929.159568-.586025.210707-.879439.16651-.384231-.058-.739914-.279596-.952145-.635548l-2.846535-4.77385c-.179761-.301386-.230522-.660853-.141221-.999143z" fill="#4f4f4f"/><path d="m12.138563 10.250725c.285722-1.1196961.982234-2.0590441 1.961317-2.6449641l3.357661-2.0094357c.840244-.5027603 1.832597-.6969683 2.794346-.5468754 1.270858.198349 2.372937.9594618 3.023586 2.0882851l8.553143 14.8400081c.167203.28996.214395.635614.131291.960984-.08302.325369-.289453.603836-.574013.774127l-8.542777 5.112369c-.256527.153474-.544819.202659-.817601.16015-.357215-.05578-.687888-.268916-.885198-.611273l-8.553143-14.839925c-.575009-.997746-.734333-2.163754-.448612-3.28345z" opacity=".2"/><path d="m12.138563 9.2507251c.285722-1.1196962.982234-2.0590442 1.961317-2.6449642l3.357661-2.0094357c.840244-.5027603 1.832597-.6969683 2.794346-.5468754 1.270858.198349 2.372937.9594618 3.023586 2.0882851l8.553143 14.8400081c.167203.28996.214395.635614.131291.960984-.08302.325369-.289453.603836-.574013.774127l-8.542777 5.112369c-.256527.153474-.544819.202659-.817601.16015-.357215-.05578-.687888-.268916-.885198-.611273l-8.553143-14.839925c-.575009-.997746-.734333-2.163754-.448612-3.2834499z" fill="#ff9b32"/><path d="m12.628267 38h10.864729 4.155727 9.72301c1.451504 0 2.628267 1.343201 2.628267 3.000001s-1.176763 2.999999-2.628267 2.999999h-9.72301-6.14077-8.879686c-1.451504 0-2.628267-1.343199-2.628267-2.999999 0-1.6569 1.176675-3.000001 2.628267-3.000001z" fill="#ff9b32"/><path d="m15 23c3.308411 0 6-2.691589 6-6s-2.691589-6-6-6-6 2.691589-6 6 2.691589 6 6 6z" opacity=".2"/><path d="m15 22c3.308411 0 6-2.691589 6-6s-2.691589-6-6-6-6 2.691589-6 6 2.691589 6 6 6z" fill="#4f4f4f"/><path d="m15 14c1.654211 0 3 1.345789 3 3s-1.345789 3-3 3-3-1.345789-3-3 1.345789-3 3-3z" opacity=".2"/><path d="m15 13c1.654211 0 3 1.345789 3 3s-1.345789 3-3 3-3-1.345789-3-3 1.345789-3 3-3z" fill="#e4e4e4"/><path d="m19.527344 4c-.724224.0148674-1.44013.2186329-2.070313.5957031l-3.357422 2.0097657c-.979083.58592-1.675215 1.524835-1.960937 2.6445312-.139048.5449076-.167982 1.100465-.09961 1.642578.022359-.214571.045334-.429878.09961-.642578.285722-1.1196961.981854-2.0586113 1.960937-2.6445312l3.357422-2.0097657c.840244-.5027603 1.833173-.6969679 2.794922-.546875 1.270858.198349 2.372789.9610205 3.023438 2.0898438l8.552734 14.8398441c.024484.042459.02757.092109.046875.136718.025707-.06018.067573-.111462.083984-.175781.083104-.32537.036344-.670977-.130859-.960937l-8.552734-14.8398441c-.650649-1.1288233-1.75258-1.8914948-3.023438-2.0898438-.240437-.0375232-.483201-.0537839-.724609-.0488281z" fill="#fff" opacity=".2"/><path d="m12.628906 38c-1.451592 0-2.628906 1.3431-2.628906 3 0 .171007.018887.336807.042969.5.209215-1.417957 1.284172-2.5 2.585937-2.5h10.863282 4.15625 9.722656c1.301686 0 2.376708 1.082099 2.585937 2.5.024082-.163193.042969-.328993.042969-.5 0-1.6568-1.177402-3-2.628906-3h-9.722656-4.15625z" fill="#fff" opacity=".2"/></svg>

<svg xmlns="http://www.w3.org/2000/svg" width="48" height="48" x="0" y="0" version="1.1" viewBox="0 0 48 48" xml:space="preserve">
 <path style="opacity:0.2" d="m 12.628267,39 10.864729,0 4.155727,0 9.72301,0 C 38.823237,39 40,40.343201 40,42.000001 40,43.656801 38.823237,45 37.371733,45 l -9.72301,0 -6.14077,0 -8.879686,0 C 11.176763,45 10,43.656801 10,42.000001 10,40.343101 11.176675,39 12.628267,39 Z"/>
 <path d="m 23.043068,26.576251 c 0.08939,-0.338291 0.311434,-0.627815 0.617427,-0.804869 l 4.47695,-2.589723 c 0.637054,-0.368518 1.457257,-0.158602 1.831585,0.469038 l 2.846535,4.773851 c 0.374149,0.627726 0.161025,1.435318 -0.476207,1.804011 l -4.47695,2.589723 c -0.275929,0.159568 -0.586025,0.210707 -0.879439,0.16651 -0.384231,-0.058 -0.739914,-0.279596 -0.952145,-0.635548 l -2.846535,-4.77385 c -0.179761,-0.301386 -0.230522,-0.660853 -0.141221,-0.999143 z" style="opacity:0.2"/>
 <path style="opacity:0.2" d="m 18.71875,10.746094 c -0.651893,-0.01444 -1.309873,0.220627 -1.818359,0.707031 l -4.357422,4.167969 C 6.6699471,21.239491 6.4635504,30.587916 12.082031,36.460938 L 13.554688,38 l 7.050781,0 -4.841797,-5.0625 c -3.676011,-3.842646 -3.539913,-9.958671 0.302734,-13.634766 l 4.357422,-4.167968 c 1.016801,-0.972722 1.050933,-2.584677 0.07813,-3.601563 -0.486403,-0.508401 -1.13131,-0.772671 -1.783203,-0.787109 z"/>
 <rect width="10" height="2" x="-37" y="36" transform="scale(-1,1)" style="fill:#cccccc"/>
 <path style="fill:#3f3f3f" d="m 21.339581,43.5 15.378993,0 c 1.407147,0 2.547949,-0.640801 2.547949,-2.047948 0,-1.407147 -1.140802,-2.547949 -2.547949,-2.547949 l -14.290424,0 -6.66382,-6.965837 C 12.088319,28.09562 12.22387,21.97876 16.066517,18.302665 l 4.356397,-4.16751 c 1.016801,-0.972722 1.052558,-2.585573 0.07975,-3.602459 -0.972807,-1.0168018 -2.585488,-1.0525581 -3.60246,-0.07975 l -4.356397,4.167509 c -5.8730217,5.618397 -6.0801699,14.9675 -0.461689,20.840521 l 7.416314,7.752389 C 19.979146,43.715819 20.644246,43.5 21.339581,43.5 Z"/>
 <path style="fill:#4f4f4f" d="m 23.043068,25.576251 c 0.08939,-0.338291 0.311434,-0.627815 0.617427,-0.804869 l 4.47695,-2.589723 c 0.637054,-0.368518 1.457257,-0.158602 1.831585,0.469038 l 2.846535,4.773851 c 0.374149,0.627726 0.161025,1.435318 -0.476207,1.804011 l -4.47695,2.589723 c -0.275929,0.159568 -0.586025,0.210707 -0.879439,0.16651 -0.384231,-0.058 -0.739914,-0.279596 -0.952145,-0.635548 l -2.846535,-4.77385 c -0.179761,-0.301386 -0.230522,-0.660853 -0.141221,-0.999143 z"/>
 <path d="M 12.138563,10.250725 C 12.424285,9.1310289 13.120797,8.1916809 14.09988,7.6057609 l 3.357661,-2.0094357 c 0.840244,-0.5027603 1.832597,-0.6969683 2.794346,-0.5468754 1.270858,0.198349 2.372937,0.9594618 3.023586,2.0882851 l 8.553143,14.8400081 c 0.167203,0.28996 0.214395,0.635614 0.131291,0.960984 -0.08302,0.325369 -0.289453,0.603836 -0.574013,0.774127 l -8.542777,5.112369 c -0.256527,0.153474 -0.544819,0.202659 -0.817601,0.16015 -0.357215,-0.05578 -0.687888,-0.268916 -0.885198,-0.611273 L 12.587175,13.534175 c -0.575009,-0.997746 -0.734333,-2.163754 -0.448612,-3.28345 z" style="opacity:0.2"/>
 <path style="fill:#ff9b32" d="M 12.138563,9.2507251 C 12.424285,8.1310289 13.120797,7.1916809 14.09988,6.6057609 l 3.357661,-2.0094357 c 0.840244,-0.5027603 1.832597,-0.6969683 2.794346,-0.5468754 1.270858,0.198349 2.372937,0.9594618 3.023586,2.0882851 l 8.553143,14.8400081 c 0.167203,0.28996 0.214395,0.635614 0.131291,0.960984 -0.08302,0.325369 -0.289453,0.603836 -0.574013,0.774127 l -8.542777,5.112369 c -0.256527,0.153474 -0.544819,0.202659 -0.817601,0.16015 -0.357215,-0.05578 -0.687888,-0.268916 -0.885198,-0.611273 L 12.587175,12.534175 C 12.012166,11.536429 11.852842,10.370421 12.138563,9.2507251 Z"/>
 <path d="m 12.628267,38 10.864729,0 4.155727,0 9.72301,0 C 38.823237,38 40,39.343201 40,41.000001 40,42.656801 38.823237,44 37.371733,44 l -9.72301,0 -6.14077,0 -8.879686,0 C 11.176763,44 10,42.656801 10,41.000001 10,39.343101 11.176675,38 12.628267,38 Z" style="fill:#ff9b32"/>
 <path d="m 15,23 c 3.308411,0 6,-2.691589 6,-6 0,-3.308411 -2.691589,-6 -6,-6 -3.308411,0 -6,2.691589 -6,6 0,3.308411 2.691589,6 6,6 z" style="opacity:0.2"/>
 <path style="fill:#4f4f4f" d="m 15,22 c 3.308411,0 6,-2.691589 6,-6 0,-3.308411 -2.691589,-6 -6,-6 -3.308411,0 -6,2.691589 -6,6 0,3.308411 2.691589,6 6,6 z"/>
 <path d="m 15,14 c 1.654211,0 3,1.345789 3,3 0,1.654211 -1.345789,3 -3,3 -1.654211,0 -3,-1.345789 -3,-3 0,-1.654211 1.345789,-3 3,-3 z" style="opacity:0.2"/>
 <path style="fill:#cccccc" d="m 15,13 c 1.654211,0 3,1.345789 3,3 0,1.654211 -1.345789,3 -3,3 -1.654211,0 -3,-1.345789 -3,-3 0,-1.654211 1.345789,-3 3,-3 z"/>
 <path style="fill:#ffffff;opacity:0.2" d="M 19.527344 4 C 18.80312 4.0148674 18.087214 4.2186329 17.457031 4.5957031 L 14.099609 6.6054688 C 13.120526 7.1913888 12.424394 8.1303038 12.138672 9.25 C 11.999624 9.7949076 11.97069 10.350465 12.039062 10.892578 C 12.061421 10.678007 12.084396 10.4627 12.138672 10.25 C 12.424394 9.1303039 13.120526 8.1913887 14.099609 7.6054688 L 17.457031 5.5957031 C 18.297275 5.0929428 19.290204 4.8987352 20.251953 5.0488281 C 21.522811 5.2471771 22.624742 6.0098486 23.275391 7.1386719 L 31.828125 21.978516 C 31.852609 22.020975 31.855695 22.070625 31.875 22.115234 C 31.900707 22.055054 31.942573 22.003772 31.958984 21.939453 C 32.042088 21.614083 31.995328 21.268476 31.828125 20.978516 L 23.275391 6.1386719 C 22.624742 5.0098486 21.522811 4.2471771 20.251953 4.0488281 C 20.011516 4.0113049 19.768752 3.9950442 19.527344 4 z"/>
 <path style="fill:#ffffff;opacity:0.2" d="M 12.628906 38 C 11.177314 38 10 39.3431 10 41 C 10 41.171007 10.018887 41.336807 10.042969 41.5 C 10.252184 40.082043 11.327141 39 12.628906 39 L 23.492188 39 L 27.648438 39 L 37.371094 39 C 38.67278 39 39.747802 40.082099 39.957031 41.5 C 39.981113 41.336807 40 41.171007 40 41 C 40 39.3432 38.822598 38 37.371094 38 L 27.648438 38 L 23.492188 38 L 12.628906 38 z"/>
</svg>
